svgs/sharp-solid/credit-card-front.svg

<svg xmlns="http://www.w3.org/2000/svg" viewBox="0 0 576 512"><!--! Font Awesome Pro 6.6.0 by @fontawesome - https://fontawesome.com License - https://fontawesome.com/license (Commercial License) Copyright 2024 Fonticons, Inc. --><path d="M0 32l576 0 0 448L0 480 0 32zM480 288L96 288l0 32 384 0 0-32zM96 352l0 32 96 0 0-32-96 0zm128 0l0 32 160 0 0-32-160 0zM512 96L384 96l0 96 128 0 0-96z"/></svg>

<svg xmlns="http://www.w3.org/2000/svg" viewBox="0 0 576 512"><!--! Font Awesome Pro 6.5.2 by @fontawesome - https://fontawesome.com License - https://fontawesome.com/license (Commercial License) Copyright 2024 Fonticons, Inc. --><path d="M0 32H576V480H0V32zM480 288H96v32H480V288zM96 352v32h96V352H96zm128 0v32H384V352H224zM512 96H384v96H512V96z"/></svg>
